svg/chevron_down_round.svg

<svg xmlns="http://www.w3.org/2000/svg" viewBox="0 0 32 32" enable-background="new 0 0 32 32"><path d="M 16 3 C 8.8321429 3 3 8.8321429 3 16 C 3 23.167857 8.8321429 29 16 29 C 23.167857 29 29 23.167857 29 16 C 29 8.8321429 23.167857 3 16 3 z M 16 5 C 22.086977 5 27 9.9130231 27 16 C 27 22.086977 22.086977 27 16 27 C 9.9130231 27 5 22.086977 5 16 C 5 9.9130231 9.9130231 5 16 5 z M 10.71875 12.78125 L 9.28125 14.21875 L 15.28125 20.21875 L 16 20.90625 L 16.71875 20.21875 L 22.71875 14.21875 L 21.28125 12.78125 L 16 18.0625 L 10.71875 12.78125 z" color="#000" overflow="visible" enable-background="accumulate"/></svg>

<svg xmlns="http://www.w3.org/2000/svg" viewBox="0 0 32 32"><path d="M16 3C8.832 3 3 8.832 3 16s5.832 13 13 13 13-5.832 13-13S23.168 3 16 3zm0 2c6.087 0 11 4.913 11 11s-4.913 11-11 11S5 22.087 5 16 9.913 5 16 5zm-5.28 7.78l-1.44 1.44 6 6 .72.686.72-.687 6-6-1.44-1.44L16 18.064l-5.28-5.282z"/></svg>
